X:102
T:Far from home
R:reel
O:Shetland
M:4/4
L:1/8
K:G
"Em"GEDE "G"G2GA| "G"B2BA "G"Bcd2| "Em"GEDE "G"G2GB| "Am"A2AB "Em"AG ED|
"Em"GEDE "G"G2GA| "G"B2BA "G"Bcd2|"Em"edef "C"gedc\
|1 "G"BG AF "G"G4:|2 "G"BG AF "G"G2||
Bd|"Em"g2ge "Bm"f2fd| "Em"e2ef "Em"edB2|"G"gedB "G"G2GB| "Am"A2AB "Em"AG ED|
"Em"GEDE "G"G2GA| "G"B2BA "G"Bcd2| "Em"edef "C"gedc|
|1 "G"BG AF "G"G2 :|2 BG AF G4 |]
